X:1
T:Fitz William, The
M:2/4
L:1/8
R:Country Dance
N:Section labeled "1781"
B:Samuel, Ann & Peter Thompson -- Compleat Collection of 200
B:Favourite Country Dances, vol. 5 (London, 1788; No. 187, p. 92)
Z:AK/Fiddler's Companion
K:A
E|AAAB|c>dcA|B>cBG|A/G/A/B/ AE|AAAB|c>dcA|dBAG|A2-A:|
|:A|e2 e/f/e/d/|cccd|eaed|c>deA|e2 e/f/e/d/|cccd|eaed|c>de:|
|:E|dddB|cccA|dddB|e>feE|dddB|cccA|dBAG|A2 [A,A2]:|

